!!!OTL: Beim Pf&auml;nderspiel (254), S. 545
!!!id: T0443
**kern
*clefG2
*k[f#]
*G:
{8d
=1
8e
8f#
8g
8g
=2
8g
8g
8g
8g
=3
4g}
8r
=4
{8d
=5
8e
8f#
8g
8g
=6
4g}
8r
=7
{8a
=8
16b
16b
8b
8b
8b
=9
8cc
8b
8a
8b
=10
8g
8g
8g
8cc
=11
8g
8g
8g}
=12
{8d
=13
16d
16d
8d
16e
16e
8f#
=14
4g}
8r
=15
{8a
=16
16b
16b
8b
8b
8b
=17
8cc
8b
8a
8b
=18
8g
8g
8g
8cc
=19
8g
8g
8g}
=20
{8d
=21
16d
16d
8d
16e
16e
8f#
=22
4g}
8r
==
*-
!!!minrhy: 16
!!!meters: 2/4 ]  ZZ[6
!!!cut: Beim Pf&auml;nderspiel (254), S. 545
!!!reg: Luxemburg
!!!trd: Singendes Volk, Esch-Alzette, 1937 posth.
!!!rhy1: X_  X_X_X_X_  X_X_X_X_  X__0   (x2)
!!!rhy2: X_  X_X_X_X_  X__0
!!!key: T0443  16  G 2/4 ]  ZZ[6
!!!mod: HEPTATONIK IONISCH]  AMBITUS[7b
!!!kad: 111111
!!!akz: -611_-61_3411_-51_3411_-51_
!!!fot: 'a__av_b__c__b__c__
!!!for: 'a__aw_b__c__b__c__
!!!fok: '/__/__^d_/__^d_/__
!! PHRAS[AUFTAKTIG]
!!!fkt: Scherz-, Spiel-, Spottlied
!!!bem: StraPen, fff Witry, 31.1.1933
!! THILL; Mathias
!! PR[75] 2K[0] 2G[12] 3K[2] 3G[0] 4A[0] 4Ü[0] 5A[0] 6K[0] 6G[0]
!! 7K[0] 7G[0] 8A[0] MEHR[0] SI[13] ABS[52] SR[12] SP[2]
!! ST[0] 2k[0] 2g[4] 3k[4] 3g[4] 4d[0] 4ü[0] 5d[0] 6k[0] 6g[0]
!! 7k[0] 7g[0] 8d[0] mehr[0] si[12] dm[+1] sr[4] sp[8]
!! 1F[4] 2F[77] 3F[15] 4F[0] LF[0] 2P[4] 3P[0] 4P[0] TRI[0] DF[4] AB[53]
!! TF[0] U3K[0] U3[0] U4[0] U4Ü[0] U5[0] U6K[0] U6[0] U7K[0] U7[0]
!! N1[0] N2K[0] N2[0] N3K[0] N3[6] N4[8] N4Ü[0] N5[79] N6K[0] N6[8]
!!!n7k: 0] N7[0] O1[0] O2K[0] O2[0] O3K[0] O3[0] HÖ[0
!!!RNB: symbol: &auml;      = a umlaut  (UTF-8: Å„)
